X: 39959
T: Threadneedle
R: reel
M: 4/4
K: Gmajor
|:"G" G2 (3ABc "D" defa|"G" g2 ba gdBd|"C" e2 dc "G" Bdgd|"Am" cBAG "D" FDEF|
"G" G2 (3ABc "D" defa|"G" g2 ba gdBd|"Am" cdeg "D"fdga|b2ag "G"g4:|
|:"G" dcBg "D" f3g|"C" (3efe dc "G" Bcdg|"C" eg (3gfg "G" bdBd|"C" e3g "D" fgaf|
"G" dcBg "D" f3g|"C" (3efe dc "G" Bcdg|"Am" cBAG "D" FDGA|B2 AG "G" G4:|

